X: 1
T: Den ny S\onderhoning
O: Efter Gr\"uner Nielsen
M: 2/4
L: 1/16
K: G
|: "G"G2G2 B2B2 | "Am"A2A2 c2c2 | "G"BcBG "D7"ABAF |1,3 "G"G2D2 D4 :|2,4 "G"G2z2 [g2B2]z2 :|
|: "G"B2B2 [d4D4] | "D7"cBAG A4 | "C"c2c2 [e4c4] | "D7"dcBA "G"B4 \
|  "G"G2G2 B2B2 | "Am"A2A2 {A}c2c2 | "G"BcBG "D7"ABAF | "G"G2z2 [g2B2]z2 :|
